svg/Pictogram/pictograms-aem-0094-stored_energy_release-kickback.svg

<?xml version="1.0" encoding="ISO-8859-1" standalone="yes"?>
<svg height="304.014" width="304.015">
  <metadata>
    <rdf:RDF xmlns:cc="http://web.resource.org/cc/" xmlns:dc="http://purl.org/dc/elements/1.1/" xmlns:rdf="http://www.w3.org/1999/02/22-rdf-syntax-ns#">
      <cc:Work rdf:about="">
        <dc:title></dc:title>
        <dc:description></dc:description>
        <dc:subject>
          <rdf:Bag>
            <rdf:li></rdf:li>
          </rdf:Bag>
        </dc:subject>
        <dc:publisher>
          <cc:Agent rdf:about="http://www.unece.org/trans/danger/publi/ghs/pictograms.html">
            <dc:title>Source: UNECE GHS of Classification and Labeling of Chemicals, Source: AEM Pictorial Database, Source: AEM Pictorial Database, Source: AEM Pictorial Database, Source: AEM Pictorial Database</dc:title>
          </cc:Agent>
        </dc:publisher>
        <dc:creator>
          <cc:Agent>
            <dc:title></dc:title>
          </cc:Agent>
        </dc:creator>
        <dc:rights>
          <cc:Agent>
            <dc:title></dc:title>
          </cc:Agent>
        </dc:rights>
        <dc:date></dc:date>
        <dc:format>image/svg+xml</dc:format>
        <dc:type rdf:resource="http://purl.org/dc/dcmitype/StillImage"/>
        <cc:license rdf:resource="http://en.wikipedia.org/wiki/Public_domain"/>
        <dc:language>en</dc:language>
      </cc:Work>
    </rdf:RDF>
  </metadata>
  <defs><marker id="ArrowEnd" markerHeight="3" markerUnits="strokeWidth" markerWidth="4" orient="auto" refX="0" refY="5" viewBox="0 0 10 10"><path d="M 0 0 L 10 5 L 0 10 z"/></marker><marker id="ArrowStart" markerHeight="3" markerUnits="strokeWidth" markerWidth="4" orient="auto" refX="10" refY="5" viewBox="0 0 10 10"><path d="M 10 0 L 0 5 L 10 10 z"/></marker> </defs>
  <g id="g2958" transform="matrix(1.3532768,0,0,1.3532781,-53.207834,-52.192858)">
    <path d="M 197.101 144.858L 158.159 131.584L 153.925 100.092C 153.73 98.6434 153.202 97.3234 152.444 96.1784C 152.425 96.1474 152.401 96.1124 152.378 96.0774C 152.253 95.8934 152.12 95.7134 151.983 95.5414C 151.909 95.4484 151.839 95.3584 151.765 95.2684C 151.667 95.1554 151.565 95.0414 151.464 94.9324C 151.339 94.7994 151.214 94.6704 151.081 94.5454C 151.019 94.4874 150.952 94.4244 150.886 94.3664C 150.714 94.2094 150.534 94.0574 150.347 93.9134C 150.315 93.8894 150.288 93.8704 150.257 93.8464C 149.862 93.5454 149.444 93.2684 148.995 93.0304L 132.425 84.2294C 131.655 83.8234 130.854 83.5414 130.042 83.3624C 129.058 83.1354 128.022 83.0574 126.964 83.1664L 90.0344 87.0534C 86.5694 87.2604 83.3544 89.3854 81.9334 92.8034L 63.9134 136.108C 61.9214 140.893 64.1874 146.385 68.9684 148.374C 73.7534 150.362 79.2454 148.096 81.2334 143.315L 97.1044 105.174L 111.483 103.663L 93.6594 137.237C 92.2414 139.514 91.8434 142.338 92.6594 144.967C 92.6594 144.971 92.6594 144.975 92.6594 144.979C 92.7304 145.202 92.8124 145.42 92.9014 145.643C 92.9334 145.725 92.9644 145.811 92.9994 145.897C 93.0624 146.045 93.1364 146.19 93.2064 146.334C 93.2804 146.491 93.3584 146.643 93.4404 146.791C 93.4604 146.831 93.4764 146.866 93.4954 146.901L 121.69 195.616C 121.69 195.62 121.694 195.62 121.694 195.624L 150.062 244.237C 152.675 248.709 158.421 250.221 162.894 247.612C 167.37 244.998 168.882 239.256 166.269 234.78L 137.933 186.221C 137.929 186.221 137.929 186.217 137.929 186.217L 126.038 165.674L 159.98 183.12L 171.05 233.776C 172.155 238.838 177.155 242.045 182.218 240.94C 187.276 239.831 190.483 234.834 189.378 229.768L 177.413 175.034C 177.276 174.327 177.065 173.639 176.772 172.983C 176.765 172.967 176.757 172.952 176.749 172.936C 176.636 172.682 176.511 172.428 176.37 172.186C 176.323 172.108 176.272 172.034 176.226 171.956C 176.12 171.776 176.015 171.6 175.894 171.428C 175.819 171.323 175.737 171.221 175.659 171.12C 175.558 170.987 175.46 170.85 175.347 170.721C 175.241 170.592 175.124 170.475 175.011 170.354C 174.921 170.256 174.835 170.163 174.737 170.069C 174.569 169.905 174.394 169.752 174.218 169.604C 174.167 169.565 174.12 169.518 174.069 169.479C 173.526 169.038 172.929 168.666 172.3 168.358L 130.913 147.081L 139.21 131.459L 140.327 139.78C 140.511 141.155 140.991 142.413 141.687 143.514C 141.702 143.541 141.722 143.569 141.737 143.592C 141.862 143.784 141.987 143.975 142.124 144.155C 143.222 145.651 144.765 146.838 146.651 147.483L 191.046 162.612C 195.952 164.28 201.28 161.659 202.952 156.756C 204.624 151.85 202.003 146.522 197.097 144.85" style="stroke:none; fill-rule:evenodd; fill:#000000"/>
    <path d="M 165.542 79.6354C 166.808 79.6354 168.007 79.9054 169.097 80.3854C 169.491 79.7564 169.866 79.1084 170.183 78.4134C 173.937 70.1594 170.288 60.4244 162.038 56.6704C 153.784 52.9134 144.05 56.5614 140.296 64.8154C 136.538 73.0654 140.187 82.7994 148.44 86.5534C 151.128 87.7804 153.976 88.2064 156.722 87.9524C 156.995 83.3154 160.835 79.6354 165.542 79.6354" style="stroke:none; fill-rule:evenodd; fill:#000000"/>
    <path d="M 228.55 111.014C 230.972 112.456 234.116 111.655 235.558 109.233C 236.995 106.807 236.194 103.666 233.772 102.225C 231.347 100.788 228.202 101.584 226.765 104.01C 225.323 106.432 226.128 109.577 228.55 111.014zM 229.022 105.35C 229.722 104.17 231.253 103.784 232.429 104.483C 233.608 105.182 233.995 106.713 233.296 107.889C 232.597 109.069 231.069 109.456 229.89 108.756C 228.71 108.057 228.319 106.53 229.019 105.35" style="stroke:none; fill-rule:evenodd; fill:#000000"/>
    <path d="M 240.616 104.213C 239.972 101.686 238.382 99.5654 236.144 98.2334C 231.519 95.4874 225.519 97.0144 222.772 101.639C 221.241 104.221 221.003 107.334 222.069 110.116L 219.909 113.745L 189.569 95.7214C 189.339 96.6084 189.132 97.5064 188.956 98.4134C 203.382 106.979 219.698 116.67 219.698 116.67L 220.823 117.342L 221.495 116.213L 224.655 110.905L 225.011 110.303L 224.714 109.67C 223.702 107.522 223.819 105.022 225.03 102.983C 227.038 99.6004 231.421 98.4874 234.804 100.491C 236.44 101.463 237.601 103.014 238.069 104.862C 238.538 106.709 238.265 108.627 237.292 110.264C 236.104 112.26 234.011 113.557 231.69 113.733L 231.577 113.741L 231.472 113.768L 230.944 113.901C 230.882 113.916 230.601 114.377 230.601 114.377L 224.944 123.702C 223.987 125.315 221.913 125.842 220.312 124.893L 188.187 105.811C 188.183 106.077 188.171 106.342 188.171 106.612C 188.171 107.377 188.194 108.135 188.233 108.893L 218.972 127.151C 220.351 127.967 221.964 128.202 223.519 127.807C 225.073 127.409 226.378 126.432 227.198 125.053C 227.194 125.061 231.339 118.225 232.526 116.264C 235.44 115.85 238.038 114.151 239.55 111.604C 240.882 109.362 241.261 106.741 240.616 104.213zM 232.038 116.331L 231.886 116.35C 231.94 116.346 231.991 116.334 232.042 116.331L 232.038 116.331" style="stroke:none; fill-rule:evenodd; fill:#000000"/>
    <path d="M 163.851 91.3584C 163.073 90.8974 162.526 90.1634 162.304 89.2884C 162.081 88.4134 162.21 87.5064 162.671 86.7294C 163.62 85.1274 165.698 84.6004 167.3 85.5494C 167.3 85.5494 173.702 89.3544 182.03 94.2994C 182.249 93.4134 182.487 92.5384 182.753 91.6704L 168.644 83.2914C 165.796 81.6004 162.104 82.5414 160.413 85.3894C 159.597 86.7684 159.362 88.3814 159.757 89.9364C 160.155 91.4914 161.132 92.7954 162.511 93.6164L 180.565 104.338C 180.608 103.358 180.69 102.385 180.788 101.416L 163.851 91.3584" style="stroke:none; fill-rule:evenodd; fill:#000000"/>
    <path d="M 191.519 63.3934L 191.534 65.9874L 205.327 65.9954C 191.753 74.6554 182.823 89.9244 183.042 107.209C 183.155 116.248 185.753 124.674 190.175 131.846L 192.394 130.502C 188.202 123.713 185.741 115.737 185.636 107.178C 185.429 90.8464 193.847 76.4164 206.663 68.2174L 199.741 80.1944L 201.98 81.5024L 212.421 63.4134L 191.519 63.3934" style="stroke:none; fill-rule:evenodd; fill:#000000"/>
    <path d="M 29.6204 265.393L 2.62042 265.393" style="stroke:#000000; stroke-width:0.5; fill:none"/>
    <path d="M 38.6204 274.393L 38.6204 301.393" style="stroke:#000000; stroke-width:0.5; fill:none"/>
    <path d="M 29.6204 38.6204L 2.62042 38.6204" style="stroke:#000000; stroke-width:0.5; fill:none"/>
    <path d="M 38.6204 29.6204L 38.6204 2.62042" style="stroke:#000000; stroke-width:0.5; fill:none"/>
    <path d="M 274.394 38.6204L 301.394 38.6204" style="stroke:#000000; stroke-width:0.5; fill:none"/>
    <path d="M 265.394 29.6204L 265.394 2.62042" style="stroke:#000000; stroke-width:0.5; fill:none"/>
    <path d="M 274.394 265.393L 301.394 265.393" style="stroke:#000000; stroke-width:0.5; fill:none"/>
    <path d="M 265.394 274.393L 265.394 301.393" style="stroke:#000000; stroke-width:0.5; fill:none"/>
  </g>
</svg>

<svg viewBox="0 0 304.01 304.01"><g transform="matrix(1.35328 0 0 1.35328-53.21-52.19)" fill-rule="evenodd"><path d="m197.1 144.86l-38.942-13.274-4.234-31.492c-.195-1.449-.723-2.769-1.481-3.914-.019-.031-.043-.066-.066-.101-.125-.184-.258-.364-.395-.536-.074-.093-.144-.183-.218-.273-.098-.113-.2-.227-.301-.336-.125-.133-.25-.262-.383-.387-.062-.058-.129-.121-.195-.179-.172-.157-.352-.309-.539-.453-.032-.024-.059-.043-.09-.067-.395-.301-.813-.578-1.262-.816l-16.57-8.801c-.77-.406-1.571-.688-2.383-.867-.984-.227-2.02-.305-3.078-.196l-36.93 3.887c-3.465.207-6.68 2.332-8.101 5.75l-18.02 43.3c-1.992 4.785.274 10.277 5.05 12.266 4.785 1.988 10.277-.278 12.265-5.059l15.871-38.14 14.379-1.511-17.824 33.574c-1.418 2.277-1.816 5.101-1 7.73 0 .004 0 .008 0 .012.071.223.153.441.242.664.032.082.063.168.098.254.063.148.137.293.207.437.074.157.152.309.234.457.02.04.036.075.055.11l28.19 48.715c0 .004.004.004.004.008l28.368 48.613c2.613 4.472 8.359 5.984 12.832 3.375 4.476-2.614 5.988-8.356 3.375-12.832l-28.336-48.559c-.004 0-.004-.004-.004-.004l-11.891-20.543 33.942 17.446 11.07 50.656c1.105 5.062 6.105 8.269 11.168 7.164 5.058-1.109 8.265-6.106 7.16-11.172l-11.965-54.734c-.137-.707-.348-1.395-.641-2.051-.007-.016-.015-.031-.023-.047-.113-.254-.238-.508-.379-.75-.047-.078-.098-.152-.144-.23-.106-.18-.211-.356-.332-.528-.075-.105-.157-.207-.235-.308-.101-.133-.199-.27-.312-.399-.106-.129-.223-.246-.336-.367-.09-.098-.176-.191-.274-.285-.168-.164-.343-.317-.519-.465-.051-.039-.098-.086-.149-.125-.543-.441-1.14-.813-1.769-1.121l-41.39-21.277 8.297-15.622 1.117 8.321c.184 1.375.664 2.633 1.36 3.734.015.027.035.055.05.078.125.192.25.383.387.563 1.098 1.496 2.641 2.683 4.527 3.328l44.39 15.13c4.906 1.668 10.234-.953 11.906-5.856 1.672-4.906-.949-10.234-5.855-11.906"/><path d="m165.54 79.64c1.266 0 2.465.27 3.555.75.394-.629.769-1.277 1.086-1.972 3.754-8.254.105-17.989-8.145-21.743-8.254-3.757-17.988-.109-21.742 8.145-3.758 8.25-.109 17.984 8.144 21.738 2.688 1.227 5.536 1.653 8.282 1.399.273-4.637 4.113-8.317 8.82-8.317"/><path d="m228.55 111.01c2.422 1.442 5.566.641 7.01-1.781 1.437-2.426.636-5.567-1.786-7.01-2.425-1.437-5.57-.641-7.01 1.785-1.442 2.422-.637 5.567 1.785 7m.472-5.664c.7-1.18 2.231-1.566 3.407-.867 1.179.699 1.566 2.23.867 3.406-.699 1.18-2.227 1.567-3.406.867-1.18-.699-1.571-2.226-.871-3.406"/><path d="m240.62 104.21c-.644-2.527-2.234-4.648-4.472-5.98-4.625-2.746-10.625-1.219-13.372 3.406-1.531 2.582-1.769 5.695-.703 8.477l-2.16 3.629-30.34-18.02c-.23.887-.437 1.785-.613 2.692 14.426 8.566 30.742 18.257 30.742 18.257l1.125.672.672-1.129 3.16-5.308.356-.602-.297-.633c-1.012-2.148-.895-4.648.316-6.687 2.01-3.383 6.391-4.496 9.774-2.492 1.636.972 2.797 2.523 3.265 4.371.469 1.847.196 3.765-.777 5.402-1.188 1.996-3.281 3.293-5.602 3.469l-.113.008-.105.027-.528.133c-.062.015-.343.476-.343.476l-5.657 9.325c-.957 1.613-3.03 2.14-4.632 1.191l-32.12-19.08c-.004.266-.016.531-.016.801 0 .765.023 1.523.062 2.281l30.739 18.258c1.379.816 2.992 1.051 4.547.656 1.554-.398 2.859-1.375 3.679-2.754-.004.008 4.141-6.828 5.328-8.789 2.914-.414 5.512-2.113 7.02-4.66 1.332-2.242 1.711-4.863 1.066-7.391m-8.578 12.12l-.152.019c.054-.004.105-.016.156-.019h-.004"/><path d="m163.85 91.36c-.778-.461-1.325-1.195-1.547-2.07-.223-.875-.094-1.782.367-2.559.949-1.602 3.03-2.129 4.629-1.18 0 0 6.402 3.805 14.73 8.75.219-.886.457-1.761.723-2.629l-14.11-8.379c-2.848-1.691-6.54-.75-8.231 2.098-.816 1.379-1.051 2.992-.656 4.547.398 1.555 1.375 2.859 2.754 3.68l18.05 10.722c.043-.98.125-1.953.223-2.922l-16.937-10.06"/><path d="m191.52 63.39l.015 2.594 13.793.008c-13.574 8.66-22.504 23.929-22.285 41.21.113 9.04 2.711 17.465 7.133 24.637l2.219-1.344c-4.192-6.789-6.653-14.765-6.758-23.324-.207-16.332 8.211-30.762 21.03-38.961l-6.922 11.977 2.239 1.308 10.441-18.09-20.902-.02"/></g></svg>
